static/favicon.svg

<svg width="1024" height="1024" viewBox="0 0 1024 1024" fill="none" xmlns="http://www.w3.org/2000/svg"><g filter="url(#a)"><path d="M962 489.5h-37.5V362a52.5 52.5 0 0 0-52.5-52.5h-67.5V272a52.5 52.5 0 0 0-52.5-52.5h-90a52.5 52.5 0 0 0-52.5 52.5v217.5h-195V272a52.5 52.5 0 0 0-52.5-52.5h-90a52.5 52.5 0 0 0-52.5 52.5v37.5H152A52.5 52.5 0 0 0 99.5 362v127.5H62A22.5 22.5 0 0 0 39.5 512 22.5 22.5 0 0 0 62 534.5h37.5V662a52.5 52.5 0 0 0 52.5 52.5h67.5V752a52.5 52.5 0 0 0 52.5 52.5h90a52.5 52.5 0 0 0 52.5-52.5V534.5h195V752a52.5 52.5 0 0 0 52.5 52.5h90a52.5 52.5 0 0 0 52.5-52.5v-37.5H872a52.5 52.5 0 0 0 52.5-52.5V534.5H962a22.504 22.504 0 0 0 22.5-22.5 22.504 22.504 0 0 0-22.5-22.5m-810 180a7.497 7.497 0 0 1-7.5-7.5V362a7.497 7.497 0 0 1 7.5-7.5h67.5v315zM369.5 752a7.497 7.497 0 0 1-7.5 7.5h-90a7.497 7.497 0 0 1-7.5-7.5V272a7.497 7.497 0 0 1 7.5-7.5h90a7.497 7.497 0 0 1 7.5 7.5zm390 0a7.497 7.497 0 0 1-7.5 7.5h-90a7.497 7.497 0 0 1-7.5-7.5V272a7.497 7.497 0 0 1 7.5-7.5h90a7.497 7.497 0 0 1 7.5 7.5zm120-90a7.497 7.497 0 0 1-7.5 7.5h-67.5v-315H872a7.497 7.497 0 0 1 7.5 7.5z" fill="url(#b)"/></g><defs><linearGradient id="b" x1="39.5" y1="219.5" x2="1037.38" y2="661.112" gradientUnits="userSpaceOnUse"><stop stop-color="#E26930"/><stop offset=".605" stop-color="#F18938"/><stop offset="1" stop-color="#8AAEA2"/></linearGradient><filter id="a" x="28" y="32" width="968" height="968" filterUnits="userSpaceOnUse" color-interpolation-filters="sRGB"><feFlood flood-opacity="0" result="BackgroundImageFix"/><feColorMatrix in="SourceAlpha" values="0 0 0 0 0 0 0 0 0 0 0 0 0 0 0 0 0 0 127 0" result="hardAlpha"/><feOffset dy="4"/><feGaussianBlur stdDeviation="2"/><feComposite in2="hardAlpha" operator="out"/><feColorMatrix values="0 0 0 0 0 0 0 0 0 0 0 0 0 0 0 0 0 0 0.25 0"/><feBlend in2="BackgroundImageFix" result="effect1_dropShadow_3359_19"/><feBlend in="SourceGraphic" in2="effect1_dropShadow_3359_19" result="shape"/></filter></defs></svg>

<svg xmlns="http://www.w3.org/2000/svg" version="1.1" xmlns:xlink="http://www.w3.org/1999/xlink" xmlns:svgjs="http://svgjs.dev/svgjs" width="1024" height="1024"><svg width="1024" height="1024" viewBox="0 0 1024 1024" fill="none" xmlns="http://www.w3.org/2000/svg">
	<g filter="url(#filter0_d_3359_19)">
		<path d="M962 489.5H924.5V362C924.5 348.076 918.969 334.723 909.123 324.877C899.277 315.031 885.924 309.5 872 309.5H804.5V272C804.5 258.076 798.969 244.723 789.123 234.877C779.277 225.031 765.924 219.5 752 219.5H662C648.076 219.5 634.723 225.031 624.877 234.877C615.031 244.723 609.5 258.076 609.5 272V489.5H414.5V272C414.5 258.076 408.969 244.723 399.123 234.877C389.277 225.031 375.924 219.5 362 219.5H272C258.076 219.5 244.723 225.031 234.877 234.877C225.031 244.723 219.5 258.076 219.5 272V309.5H152C138.076 309.5 124.723 315.031 114.877 324.877C105.031 334.723 99.5 348.076 99.5 362V489.5H62C56.0326 489.5 50.3097 491.871 46.0901 496.09C41.8705 500.31 39.5 506.033 39.5 512C39.5 517.967 41.8705 523.69 46.0901 527.91C50.3097 532.129 56.0326 534.5 62 534.5H99.5V662C99.5 675.924 105.031 689.277 114.877 699.123C124.723 708.969 138.076 714.5 152 714.5H219.5V752C219.5 765.924 225.031 779.277 234.877 789.123C244.723 798.969 258.076 804.5 272 804.5H362C375.924 804.5 389.277 798.969 399.123 789.123C408.969 779.277 414.5 765.924 414.5 752V534.5H609.5V752C609.5 765.924 615.031 779.277 624.877 789.123C634.723 798.969 648.076 804.5 662 804.5H752C765.924 804.5 779.277 798.969 789.123 789.123C798.969 779.277 804.5 765.924 804.5 752V714.5H872C885.924 714.5 899.277 708.969 909.123 699.123C918.969 689.277 924.5 675.924 924.5 662V534.5H962C967.967 534.5 973.69 532.129 977.91 527.91C982.129 523.69 984.5 517.967 984.5 512C984.5 506.033 982.129 500.31 977.91 496.09C973.69 491.871 967.967 489.5 962 489.5ZM152 669.5C150.011 669.5 148.103 668.71 146.697 667.303C145.29 665.897 144.5 663.989 144.5 662V362C144.5 360.011 145.29 358.103 146.697 356.697C148.103 355.29 150.011 354.5 152 354.5H219.5V669.5H152ZM369.5 752C369.5 753.989 368.71 755.897 367.303 757.303C365.897 758.71 363.989 759.5 362 759.5H272C270.011 759.5 268.103 758.71 266.697 757.303C265.29 755.897 264.5 753.989 264.5 752V272C264.5 270.011 265.29 268.103 266.697 266.697C268.103 265.29 270.011 264.5 272 264.5H362C363.989 264.5 365.897 265.29 367.303 266.697C368.71 268.103 369.5 270.011 369.5 272V752ZM759.5 752C759.5 753.989 758.71 755.897 757.303 757.303C755.897 758.71 753.989 759.5 752 759.5H662C660.011 759.5 658.103 758.71 656.697 757.303C655.29 755.897 654.5 753.989 654.5 752V272C654.5 270.011 655.29 268.103 656.697 266.697C658.103 265.29 660.011 264.5 662 264.5H752C753.989 264.5 755.897 265.29 757.303 266.697C758.71 268.103 759.5 270.011 759.5 272V752ZM879.5 662C879.5 663.989 878.71 665.897 877.303 667.303C875.897 668.71 873.989 669.5 872 669.5H804.5V354.5H872C873.989 354.5 875.897 355.29 877.303 356.697C878.71 358.103 879.5 360.011 879.5 362V662Z" fill="url(#paint0_linear_3359_19)"></path>
	</g>
	<defs>
		<filter id="SvgjsFilter1003" x="28" y="32" width="968" height="968" filterUnits="userSpaceOnUse" color-interpolation-filters="sRGB">
			<feFlood flood-opacity="0" result="BackgroundImageFix"></feFlood>
			<feColorMatrix in="SourceAlpha" type="matrix" values="0 0 0 0 0 0 0 0 0 0 0 0 0 0 0 0 0 0 127 0" result="hardAlpha"></feColorMatrix>
			<feOffset dy="4"></feOffset>
			<feGaussianBlur stdDeviation="2"></feGaussianBlur>
			<feComposite in2="hardAlpha" operator="out"></feComposite>
			<feColorMatrix type="matrix" values="0 0 0 0 0 0 0 0 0 0 0 0 0 0 0 0 0 0 0.25 0"></feColorMatrix>
			<feBlend mode="normal" in2="BackgroundImageFix" result="effect1_dropShadow_3359_19"></feBlend>
			<feBlend mode="normal" in="SourceGraphic" in2="effect1_dropShadow_3359_19" result="shape"></feBlend>
		</filter>
		<linearGradient id="SvgjsLinearGradient1002" x1="39.5" y1="219.5" x2="1037.38" y2="661.112" gradientUnits="userSpaceOnUse">
			<stop stop-color="#E26930"></stop>
			<stop offset="0.605" stop-color="#F18938"></stop>
			<stop offset="1" stop-color="#8AAEA2"></stop>
		</linearGradient>
	</defs>
</svg><style>@media (prefers-color-scheme: light) { :root { filter: none; } }
@media (prefers-color-scheme: dark) { :root { filter: none; } }
</style></svg>
